src/person-inside-badge.svg

<svg xmlns="http://www.w3.org/2000/svg" class="dibsvg-svg dibsvg-person-inside-badge" viewBox="0 0 250 250">
    <g fill-rule="evenodd">
        <path d="M124.203187,5.77689243 L136.354582,9.86055777 L149.103586,8.36653386 L160.159363,14.8406375 L172.908367,15.936255 L182.270916,24.6015936 L194.521912,28.2868526 L201.89243,38.6454183 L213.047809,44.8207171 L218.12749,56.4741036 L227.788845,64.8406375 L230.278884,77.2908367 L237.948207,87.4501992 L237.848606,100.199203 L243.227092,111.752988 L240.438247,124.203187 L243.326693,136.653386 L237.948207,148.207171 L238.14741,160.956175 L230.478088,171.215139 L227.988048,183.665339 L218.426295,192.031873 L213.446215,203.784861 L202.290837,210.059761 L194.920319,220.517928 L182.669323,224.302789 L173.306773,232.968127 L160.557769,234.163347 L149.601594,240.737052 L136.85259,239.243028 L124.800797,243.326693 L112.649402,239.243028 L99.9003984,240.737052 L88.8446215,234.262948 L76.1952191,233.067729 L66.8326693,224.40239 L54.5816733,220.717131 L47.2111554,210.358566 L36.0557769,204.183267 L30.9760956,192.52988 L21.314741,184.163347 L18.8247012,171.713147 L11.1553785,161.553785 L11.2549801,148.804781 L5.87649402,137.250996 L8.66533865,124.800797 L5.77689243,112.350598 L11.1553785,100.796813 L10.9561753,88.0478088 L18.625498,77.7888446 L21.1155378,65.3386454 L30.6772908,56.9721116 L35.6573705,45.2191235 L46.812749,38.9442231 L54.1832669,28.4860558 L66.4342629,24.7011952 L75.7968127,16.0358566 L88.4462151,14.940239 L99.4023904,8.36653386 L112.151394,9.86055777 L124.203187,5.77689243 L124.203187,5.77689243 L124.203187,5.77689243 L124.203187,5.77689243 Z M124.203187,0 L136.952191,4.28286853 L150.298805,2.68924303 L161.85259,9.46215139 L175.199203,10.6573705 L185.059761,19.7211155 L197.908367,23.6055777 L205.677291,34.4621514 L217.430279,40.936255 L222.709163,53.187251 L232.868526,61.9521912 L235.557769,75 L243.625498,85.6573705 L243.426295,99.0039841 L249.103586,111.055777 L246.215139,124.103586 L249.203187,137.151394 L243.625498,149.302789 L243.824701,162.649402 L235.856574,173.406375 L233.266932,186.553785 L223.207171,195.418327 L217.928287,207.669323 L206.2749,214.243028 L198.605578,225.199203 L185.756972,229.183267 L175.896414,238.247012 L162.549801,239.442231 L150.996016,246.314741 L137.649402,244.721116 L125,249.103586 L112.250996,244.820717 L98.9043825,246.414343 L87.3505976,239.641434 L74.0039841,238.446215 L64.1434263,229.38247 L51.2948207,225.498008 L43.5258964,214.641434 L31.7729084,208.167331 L26.4940239,195.916335 L16.3346614,187.151394 L13.6454183,174.103586 L5.57768924,163.446215 L5.77689243,150.099602 L0.0996015936,138.047809 L2.98804781,124.800797 L0,111.752988 L5.57768924,99.6015936 L5.37848606,86.3545817 L13.3466135,75.5976096 L15.936255,62.5498008 L25.9960159,53.685259 L31.2749004,41.4342629 L42.9282869,34.8605578 L50.5976096,23.9043825 L63.4462151,19.9203187 L73.3067729,10.8565737 L86.6533865,9.66135458 L98.2071713,2.78884462 L111.553785,4.38247012 L124.203187,0 L124.203187,0 L124.203187,0 L124.203187,0 Z"/>
        <path d="M124.501992,226.394422 C68.0278884,226.394422 22.1115538,180.677291 22.1115538,124.501992 C22.1115538,98.3067729 32.0717131,74.4023904 48.5059761,56.2749004 C67.2310757,35.6573705 94.3227092,22.6095618 124.501992,22.6095618 C180.976096,22.6095618 226.89243,68.3266932 226.89243,124.501992 C226.89243,180.677291 180.976096,226.394422 124.501992,226.394422 L124.501992,226.394422 L124.501992,226.394422 Z M124.501992,24.501992 C69.0239044,24.501992 24.0039841,69.3227092 24.0039841,124.501992 C24.0039841,179.681275 69.123506,224.501992 124.501992,224.501992 C179.880478,224.501992 225,179.681275 225,124.501992 C225,69.3227092 179.98008,24.501992 124.501992,24.501992 L124.501992,24.501992 L124.501992,24.501992 Z"/>
        <path d="M190.537849,182.270916 L189.243028,165.338645 L189.243028,165.239044 C187.151394,152.191235 177.191235,148.306773 176.792829,148.207171 L160.059761,141.633466 L148.705179,136.553785 C143.625498,134.262948 142.729084,130.577689 142.729084,130.478088 L142.729084,130.278884 L142.629482,130.079681 C142.330677,129.282869 142.430279,128.585657 142.52988,128.386454 C142.828685,127.888446 143.426295,127.290837 143.824701,126.792829 C144.123506,126.494024 144.322709,126.294821 144.521912,125.996016 C153.187251,115.537849 154.880478,103.286853 154.98008,102.290837 C159.36255,71.4143426 143.326693,63.4462151 141.434263,62.6494024 C136.155378,59.9601594 130.577689,58.6653386 124.800797,58.6653386 C114.940239,58.6653386 107.968127,62.6494024 107.669323,62.8486056 C100.398406,67.2310757 95.9163347,75.498008 94.6215139,86.6533865 C93.7250996,94.5219124 94.7211155,101.195219 94.8207171,101.89243 C96.7131474,115.936255 104.98008,125.59761 105.278884,125.996016 L105.378486,126.095618 C106.573705,127.390438 106.573705,127.390438 106.972112,128.286853 C107.071713,128.585657 107.071713,129.482072 107.071713,130.179283 C106.075697,134.760956 102.191235,136.354582 101.992032,136.354582 L93.2270916,140.139442 L72.5099602,148.505976 C65.7370518,150.896414 62.9482072,157.171315 62.5498008,158.067729 C60.059761,163.545817 59.063745,178.187251 58.9641434,179.880478 L58.7649402,182.868526 L64.4422311,182.768924 C64.5418327,182.868526 64.7410359,180.378486 64.7410359,178.784861 L64.8406375,176.195219 C65.3386454,170.517928 66.2350598,163.545817 67.7290837,160.557769 L67.8286853,160.258964 C67.8286853,160.258964 69.7211155,155.478088 74.4023904,153.784861 L95.3187251,145.318725 L104.083665,141.533865 C104.98008,141.23506 110.956175,138.545817 112.549801,131.175299 L112.549801,130.976096 C112.649402,130.179283 112.948207,127.589641 111.952191,125.697211 C111.155378,124.103586 110.956175,123.904382 109.462151,122.211155 C108.964143,121.613546 101.89243,112.948207 100.298805,100.996016 L100.298805,100.896414 C100.298805,100.697211 96.4143426,76.0956175 110.657371,67.5298805 C110.756972,67.5298805 116.533865,64.1434263 124.900398,64.1434263 C129.780876,64.1434263 134.561753,65.3386454 139.043825,67.5298805 L139.243028,67.6294821 C139.840637,67.8286853 153.386454,73.8047809 149.40239,101.394422 L149.40239,101.494024 C149.40239,101.593625 148.007968,113.047809 140.239044,122.310757 C140.139442,122.50996 139.940239,122.609562 139.741036,122.808765 C139.043825,123.605578 138.047809,124.601594 137.450199,125.896414 L137.350598,126.095618 C137.250996,126.394422 136.354582,128.685259 137.350598,131.573705 C137.649402,132.768924 139.342629,138.346614 146.513944,141.533865 L157.868526,146.613546 L174.800797,153.286853 C175.099602,153.386454 182.071713,156.2749 183.76494,165.936255 L184.561753,176.992032 L184.561753,176.992032 C184.561753,176.992032 184.760956,181.972112 184.960159,181.972112 L190.537849,181.972112 L190.537849,182.270916 Z"/>
    </g>
</svg>

<svg xmlns="http://www.w3.org/2000/svg" class="dibsvg-svg dibsvg-person-inside-badge" viewBox="0 0 250 250">
    <g fill-rule="evenodd">
        <path d="M124.203 5.777l12.152 4.084 12.749-1.494 11.055 6.474 12.75 1.095 9.362 8.666 12.25 3.685 7.371 10.358 11.156 6.176 5.08 11.653 9.66 8.367 2.49 12.45 7.67 10.16-.1 12.748 5.38 11.554-2.79 12.45 2.889 12.45-5.379 11.554.2 12.75-7.67 10.258-2.49 12.45-9.562 8.367-4.98 11.753-11.155 6.275-7.37 10.458-12.252 3.785-9.362 8.665-12.75 1.195-10.955 6.574-12.75-1.494-12.051 4.084-12.152-4.084-12.749 1.494-11.055-6.474-12.65-1.195-9.362-8.666-12.251-3.685-7.37-10.358-11.156-6.176-5.08-11.653-9.661-8.367-2.49-12.45-7.67-10.16.1-12.748-5.379-11.554 2.79-12.45-2.89-12.45 5.38-11.554-.2-12.75 7.67-10.258 2.49-12.45 9.561-8.367 4.98-11.753 11.156-6.275 7.37-10.458 12.251-3.785 9.363-8.665 12.65-1.096 10.955-6.573 12.75 1.494 12.051-4.084zm0-5.777l12.75 4.283 13.346-1.594 11.554 6.773 13.346 1.195 9.86 9.064 12.85 3.885 7.768 10.856 11.753 6.474 5.28 12.251 10.159 8.765L235.558 75l8.067 10.657-.199 13.347 5.678 12.052-2.889 13.048 2.988 13.047-5.578 12.152.2 13.346-7.968 10.757-2.59 13.148-10.06 8.864-5.279 12.251-11.653 6.574-7.67 10.956-12.848 3.984-9.86 9.064-13.347 1.195-11.554 6.873-13.347-1.594L125 249.104l-12.749-4.283-13.347 1.593-11.553-6.773-13.347-1.195-9.86-9.064-12.85-3.884-7.768-10.857-11.753-6.474-5.279-12.25-10.16-8.766-2.689-13.047-8.067-10.658.199-13.346L.1 138.048 2.988 124.8 0 111.753l5.578-12.151-.2-13.247 7.969-10.757 2.59-13.048 10.059-8.865 5.279-12.25 11.653-6.574 7.67-10.957 12.848-3.984 9.86-9.063L86.654 9.66l11.553-6.87 13.347 1.593L124.204 0z"/>
        <path d="M124.502 226.394c-56.474 0-102.39-45.717-102.39-101.892 0-26.195 9.96-50.1 26.394-68.227C67.231 35.657 94.323 22.61 124.502 22.61c56.474 0 102.39 45.717 102.39 101.892s-45.916 101.892-102.39 101.892zm0-201.892c-55.478 0-100.498 44.82-100.498 100s45.12 100 100.498 100c55.378 0 100.498-44.82 100.498-100s-45.02-100-100.498-100z"/>
        <path d="M190.538 182.27l-1.295-16.931v-.1c-2.092-13.048-12.052-16.932-12.45-17.032l-16.733-6.574-11.355-5.08c-5.08-2.29-5.976-5.975-5.976-6.075v-.2l-.1-.198c-.298-.797-.199-1.494-.1-1.694.3-.498.897-1.095 1.296-1.593.299-.299.498-.498.697-.797 8.665-10.458 10.358-22.71 10.458-23.705 4.383-30.877-11.653-38.845-13.546-39.642-5.279-2.689-10.856-3.984-16.633-3.984-9.86 0-16.833 3.984-17.132 4.184-7.27 4.382-11.753 12.649-13.047 23.804-.897 7.869.1 14.542.199 15.24 1.892 14.043 10.16 23.705 10.458 24.103l.1.1c1.195 1.294 1.195 1.294 1.593 2.19.1.3.1 1.196.1 1.893-.996 4.582-4.88 6.176-5.08 6.176l-8.765 3.784-20.717 8.367c-6.773 2.39-9.562 8.665-9.96 9.562-2.49 5.478-3.486 20.12-3.586 21.812l-.2 2.989 5.678-.1c.1.1.299-2.39.299-3.984l.1-2.59c.498-5.677 1.394-12.65 2.888-15.637l.1-.299s1.892-4.78 6.573-6.474l20.917-8.466 8.765-3.785c.896-.299 6.872-2.988 8.466-10.359v-.199c.1-.797.398-3.386-.598-5.279-.797-1.593-.996-1.793-2.49-3.486-.498-.597-7.57-9.263-9.163-21.215v-.1c0-.199-3.885-24.8 10.358-33.366.1 0 5.877-3.387 14.243-3.387 4.88 0 9.662 1.196 14.144 3.387l.199.1c.598.199 14.143 6.175 10.16 33.764v.1c0 .1-1.395 11.554-9.164 20.817-.1.199-.299.299-.498.498-.697.797-1.693 1.793-2.29 3.087l-.1.2c-.1.298-.996 2.59 0 5.478.298 1.195 1.992 6.773 9.163 9.96l11.355 5.08 16.932 6.673c.299.1 7.27 2.988 8.964 12.65l.797 11.055s.199 4.98.398 4.98h5.578v.299z"/>
    </g>
</svg>
